X: 23105
T: Laureen's Tune
R: waltz
M: 3/4
K: Gmajor
GA|:BcB2AB|dGGB AD|CEA2BA|GFD2GA|
BcB2AB|dGGB AD|CE A2 B,2|1 G4GA:|2 G4 Bc||
dg dggc|cBgB cd|ABD2Bc|dg dggc|
cBBc E2|F2G4|Bcdg dg|gccB gB|cdABD2|
GABcB2|ABdG GB|ADCEA2|B,2G4||

